X: 072161
T: Garadice Lough
C: Joe Liddy
Z: BB
S: "The Leitrim Fiddler" (Dublin 1981)
L: 1/8
M: 4/4
R: reel
Q: 1/4 = 170
K: G
dc | BG G2 BGcA | BGAB cedc | BG G2 BGAG | FADF ADAc |
BG G2 BdcA | BGAG FGAc | BGAB cAdc | dcAF G2 :|
Bd | g2 gf gedc | BcBG ADEF | G2 BG dGBG | FGAB cdef |
g2 (3agf gdBd | cBAG FGAc | BGAB cAdc | dcAF G2 ||
Bd | g2 gf gdBd | cBAG FGAc | BGAB cAeg | fgaf d2 ga |
bagf edcB | cBAG FDDE | FGAB cAdc | dcAF G4 ||
